presets/Fuji/Color/Fuji - 400H.xmp
<?xml version="1.0" encoding="UTF-8"?>
<x:xmpmeta xmlns:x="adobe:ns:meta/" x:xmptk="XMP Core 6.0.0">
 <rdf:RDF xmlns:rdf="http://www.w3.org/1999/02/22-rdf-syntax-ns#">
  <rdf:Description rdf:about=""
    xmlns:crs="http://ns.adobe.com/camera-raw-settings/1.0/"
   crs:PresetType="Normal"
   crs:Cluster=""
   crs:UUID="7571C787BD144A52901180F77EBB3439"
   crs:SupportsAmount2="True"
   crs:SupportsAmount="True"
   crs:SupportsColor="True"
   crs:SupportsMonochrome="False"
   crs:SupportsHighDynamicRange="True"
   crs:SupportsNormalDynamicRange="True"
   crs:SupportsSceneReferred="True"
   crs:SupportsOutputReferred="True"
   crs:RequiresRGBTables="False"
   crs:ShowInPresets="True"
   crs:ShowInQuickActions="False"
   crs:CameraModelRestriction=""
   crs:Copyright=""
   crs:ContactInfo=""
   crs:Version="18.5.1"
   crs:CompatibleVersion="268435456"
   crs:ProcessVersion="15.4"
   crs:AutoTone="False"
   crs:AutoWhiteVersion="134348800"
   crs:WhiteBalance="As Shot"
   crs:Contrast2012="-14"
   crs:Highlights2012="-8"
   crs:Shadows2012="14"
   crs:Whites2012="-6"
   crs:Blacks2012="14"
   crs:Texture="-6"
   crs:Clarity2012="-10"
   crs:Dehaze="0"
   crs:Vibrance="-12"
   crs:Saturation="-10"
   crs:ParametricShadows="0"
   crs:ParametricDarks="0"
   crs:ParametricLights="0"
   crs:ParametricHighlights="0"
   crs:ParametricShadowSplit="25"
   crs:ParametricMidtoneSplit="50"
   crs:ParametricHighlightSplit="75"
   crs:HueAdjustmentRed="-4"
   crs:HueAdjustmentOrange="0"
   crs:HueAdjustmentYellow="0"
   crs:HueAdjustmentGreen="+12"
   crs:HueAdjustmentAqua="0"
   crs:HueAdjustmentBlue="0"
   crs:HueAdjustmentPurple="0"
   crs:HueAdjustmentMagenta="0"
   crs:SaturationAdjustmentRed="-8"
   crs:SaturationAdjustmentOrange="-14"
   crs:SaturationAdjustmentYellow="-8"
   crs:SaturationAdjustmentGreen="-10"
   crs:SaturationAdjustmentAqua="14"
   crs:SaturationAdjustmentBlue="13"
   crs:SaturationAdjustmentPurple="0"
   crs:SaturationAdjustmentMagenta="-8"
   crs:LuminanceAdjustmentRed="0"
   crs:LuminanceAdjustmentOrange="0"
   crs:LuminanceAdjustmentYellow="0"
   crs:LuminanceAdjustmentGreen="0"
   crs:LuminanceAdjustmentAqua="0"
   crs:LuminanceAdjustmentBlue="5"
   crs:LuminanceAdjustmentPurple="0"
   crs:LuminanceAdjustmentMagenta="0"
   crs:SplitToningShadowHue="200"
   crs:SplitToningShadowSaturation="18"
   crs:SplitToningHighlightHue="60"
   crs:SplitToningHighlightSaturation="6"
   crs:SplitToningBalance="-20"
   crs:ColorGradeMidtoneHue="0"
   crs:ColorGradeMidtoneSat="0"
   crs:ColorGradeShadowLum="0"
   crs:ColorGradeMidtoneLum="0"
   crs:ColorGradeHighlightLum="0"
   crs:ColorGradeBlending="50"
   crs:ColorGradeGlobalHue="0"
   crs:ColorGradeGlobalSat="0"
   crs:ColorGradeGlobalLum="0"
   crs:ShadowTint="9"
   crs:RedHue="0"
   crs:RedSaturation="0"
   crs:GreenHue="0"
   crs:GreenSaturation="9"
   crs:BlueHue="8"
   crs:BlueSaturation="9"
   crs:GrainAmount="13"
   crs:GrainSize="20"
   crs:GrainFrequency="45"
   crs:HDREditMode="0"
   crs:CurveRefineSaturation="100"
   crs:ConvertToGrayscale="False"
   crs:ToneCurveName2012="Custom"
   crs:PostCropVignetteAmount="0"
   crs:PostCropVignetteFeather="50"
   crs:PostCropVignetteMidpoint="50"
   crs:PostCropVignetteRoundness="0"
   crs:PostCropVignetteStyle="1"
   crs:HasSettings="True">
   <crs:ToneCurvePV2012>
    <rdf:Seq>
     <rdf:li>0, 22</rdf:li>
     <rdf:li>32, 44</rdf:li>
     <rdf:li>64, 76</rdf:li>
     <rdf:li>128, 130</rdf:li>
     <rdf:li>192, 178</rdf:li>
     <rdf:li>255, 238</rdf:li>
    </rdf:Seq>
   </crs:ToneCurvePV2012>
   <crs:Name>
    <rdf:Alt>
     <rdf:li xml:lang="x-default">Fuji - 400H (Hernan)</rdf:li>
    </rdf:Alt>
   </crs:Name>
   <crs:ShortName>
    <rdf:Alt>
     <rdf:li xml:lang="x-default">Fuji 400H</rdf:li>
    </rdf:Alt>
   </crs:ShortName>
   <crs:Group>
    <rdf:Alt>
     <rdf:li xml:lang="x-default">Fuji - Hernan</rdf:li>
    </rdf:Alt>
   </crs:Group>
   <crs:Look>
    <rdf:Description
     crs:Name="Adobe Color"
     crs:Amount="1"
     crs:UUID="B952C231111CD8E0ECCF14B86BAA7077"
     crs:SupportsAmount="false"
     crs:SupportsMonochrome="false"
     crs:SupportsOutputReferred="false"
     crs:Copyright="© 2018 Adobe Systems, Inc."
     crs:Stubbed="true">
    <crs:Group>
     <rdf:Alt>
      <rdf:li xml:lang="x-default">Profiles</rdf:li>
     </rdf:Alt>
    </crs:Group>
    </rdf:Description>
   </crs:Look>
  </rdf:Description>
 </rdf:RDF>
</x:xmpmeta>
