presets/Fuji/Color/Fuji - Velvia_50.xmp
<?xml version="1.0" encoding="UTF-8"?>
<x:xmpmeta xmlns:x="adobe:ns:meta/" x:xmptk="XMP Core 6.0.0">
 <rdf:RDF xmlns:rdf="http://www.w3.org/1999/02/22-rdf-syntax-ns#">
  <rdf:Description rdf:about=""
    xmlns:crs="http://ns.adobe.com/camera-raw-settings/1.0/"
   crs:PresetType="Normal"
   crs:Cluster=""
   crs:UUID="23CCDB8076574123B5E2EB26CD0E3B56"
   crs:SupportsAmount2="True"
   crs:SupportsAmount="True"
   crs:SupportsColor="True"
   crs:SupportsMonochrome="False"
   crs:SupportsHighDynamicRange="True"
   crs:SupportsNormalDynamicRange="True"
   crs:SupportsSceneReferred="True"
   crs:SupportsOutputReferred="True"
   crs:RequiresRGBTables="False"
   crs:ShowInPresets="True"
   crs:ShowInQuickActions="False"
   crs:CameraModelRestriction=""
   crs:Copyright=""
   crs:ContactInfo=""
   crs:Version="18.5.1"
   crs:CompatibleVersion="268435456"
   crs:ProcessVersion="15.4"
   crs:AutoTone="True"
   crs:AutoWhiteVersion="134348800"
   crs:WhiteBalance="As Shot"
   crs:Contrast2012="22"
   crs:Highlights2012="-20"
   crs:Shadows2012="-10"
   crs:Whites2012="10"
   crs:Blacks2012="-14"
   crs:Texture="8"
   crs:Clarity2012="10"
   crs:Dehaze="6"
   crs:Vibrance="10"
   crs:Saturation="14"
   crs:ParametricShadows="0"
   crs:ParametricDarks="0"
   crs:ParametricLights="0"
   crs:ParametricHighlights="0"
   crs:ParametricShadowSplit="25"
   crs:ParametricMidtoneSplit="50"
   crs:ParametricHighlightSplit="75"
   crs:HueAdjustmentRed="2"
   crs:HueAdjustmentOrange="-4"
   crs:HueAdjustmentYellow="-6"
   crs:HueAdjustmentGreen="8"
   crs:HueAdjustmentAqua="-10"
   crs:HueAdjustmentBlue="-6"
   crs:HueAdjustmentPurple="0"
   crs:HueAdjustmentMagenta="0"
   crs:SaturationAdjustmentRed="12"
   crs:SaturationAdjustmentOrange="6"
   crs:SaturationAdjustmentYellow="8"
   crs:SaturationAdjustmentGreen="18"
   crs:SaturationAdjustmentAqua="10"
   crs:SaturationAdjustmentBlue="16"
   crs:SaturationAdjustmentPurple="6"
   crs:SaturationAdjustmentMagenta="8"
   crs:LuminanceAdjustmentRed="-6"
   crs:LuminanceAdjustmentOrange="0"
   crs:LuminanceAdjustmentYellow="-6"
   crs:LuminanceAdjustmentGreen="-12"
   crs:LuminanceAdjustmentAqua="-8"
   crs:LuminanceAdjustmentBlue="-16"
   crs:LuminanceAdjustmentPurple="0"
   crs:LuminanceAdjustmentMagenta="0"
   crs:SplitToningShadowHue="220"
   crs:SplitToningShadowSaturation="4"
   crs:SplitToningHighlightHue="45"
   crs:SplitToningHighlightSaturation="3"
   crs:SplitToningBalance="0"
   crs:ColorGradeMidtoneHue="0"
   crs:ColorGradeMidtoneSat="0"
   crs:ColorGradeShadowLum="0"
   crs:ColorGradeMidtoneLum="0"
   crs:ColorGradeHighlightLum="0"
   crs:ColorGradeBlending="50"
   crs:ColorGradeGlobalHue="40"
   crs:ColorGradeGlobalSat="3"
   crs:ColorGradeGlobalLum="0"
   crs:ShadowTint="0"
   crs:RedHue="0"
   crs:RedSaturation="10"
   crs:GreenHue="-4"
   crs:GreenSaturation="8"
   crs:BlueHue="-6"
   crs:BlueSaturation="14"
   crs:GrainAmount="0"
   crs:GrainSize="25"
   crs:GrainFrequency="50"
   crs:PostCropVignetteAmount="-6"
   crs:PostCropVignetteMidpoint="50"
   crs:PostCropVignetteFeather="50"
   crs:PostCropVignetteRoundness="0"
   crs:PostCropVignetteStyle="1"
   crs:HDREditMode="0"
   crs:CurveRefineSaturation="100"
   crs:ConvertToGrayscale="False"
   crs:ToneCurveName2012="Custom"
   crs:HasSettings="True">
   <crs:ToneCurvePV2012>
    <rdf:Seq>
     <rdf:li>0, 0</rdf:li>
     <rdf:li>48, 38</rdf:li>
     <rdf:li>128, 130</rdf:li>
     <rdf:li>200, 210</rdf:li>
     <rdf:li>255, 255</rdf:li>
    </rdf:Seq>
   </crs:ToneCurvePV2012>
   <crs:Name>
    <rdf:Alt>
     <rdf:li xml:lang="x-default">Fuji - Velvia 50 (Hernan)</rdf:li>
    </rdf:Alt>
   </crs:Name>
   <crs:ShortName>
    <rdf:Alt>
     <rdf:li xml:lang="x-default">Velvia 50</rdf:li>
    </rdf:Alt>
   </crs:ShortName>
   <crs:Group>
    <rdf:Alt>
     <rdf:li xml:lang="x-default">Fuji - Hernan</rdf:li>
    </rdf:Alt>
   </crs:Group>
   <crs:Look>
    <rdf:Description
     crs:Name="Adobe Color"
     crs:Amount="1"
     crs:UUID="B952C231111CD8E0ECCF14B86BAA7077"
     crs:SupportsAmount="false"
     crs:SupportsMonochrome="false"
     crs:SupportsOutputReferred="false"
     crs:Copyright="© 2018 Adobe Systems, Inc."
     crs:Stubbed="true">
    <crs:Group>
     <rdf:Alt>
      <rdf:li xml:lang="x-default">Profiles</rdf:li>
     </rdf:Alt>
    </crs:Group>
    </rdf:Description>
   </crs:Look>
  </rdf:Description>
 </rdf:RDF>
</x:xmpmeta>
