presets/Leica/Color/Leica-style - Contemporary.xmp
<?xml version="1.0" encoding="UTF-8"?>
<x:xmpmeta xmlns:x="adobe:ns:meta/" x:xmptk="XMP Core 6.0.0">
 <rdf:RDF xmlns:rdf="http://www.w3.org/1999/02/22-rdf-syntax-ns#">
  <rdf:Description rdf:about=""
    xmlns:crs="http://ns.adobe.com/camera-raw-settings/1.0/"
   crs:PresetType="Normal"
   crs:Cluster=""
   crs:UUID="6F70819A2B3C4D5E6F70819203142536"
   crs:SupportsAmount2="True"
   crs:SupportsAmount="True"
   crs:SupportsColor="True"
   crs:SupportsMonochrome="False"
   crs:SupportsHighDynamicRange="True"
   crs:SupportsNormalDynamicRange="True"
   crs:SupportsSceneReferred="True"
   crs:SupportsOutputReferred="True"
   crs:RequiresRGBTables="False"
   crs:ShowInPresets="True"
   crs:ShowInQuickActions="False"
   crs:CameraModelRestriction=""
   crs:Copyright=""
   crs:ContactInfo=""
   crs:Version="18.5.1"
   crs:CompatibleVersion="268435456"
   crs:ProcessVersion="15.4"
   crs:AutoTone="True"
   crs:AutoWhiteVersion="134348800"
   crs:WhiteBalance="As Shot"
   crs:Contrast2012="-8"
   crs:Highlights2012="-16"
   crs:Shadows2012="30"
   crs:Whites2012="4"
   crs:Blacks2012="14"
   crs:Texture="-6"
   crs:Clarity2012="-8"
   crs:Dehaze="-4"
   crs:Vibrance="-2"
   crs:Saturation="-4"
   crs:ParametricShadows="0"
   crs:ParametricDarks="0"
   crs:ParametricLights="0"
   crs:ParametricHighlights="0"
   crs:ParametricShadowSplit="25"
   crs:ParametricMidtoneSplit="50"
   crs:ParametricHighlightSplit="75"
   crs:HueAdjustmentRed="2"
   crs:HueAdjustmentOrange="4"
   crs:HueAdjustmentYellow="2"
   crs:HueAdjustmentGreen="8"
   crs:HueAdjustmentAqua="0"
   crs:HueAdjustmentBlue="0"
   crs:HueAdjustmentPurple="0"
   crs:HueAdjustmentMagenta="0"
   crs:SaturationAdjustmentRed="-6"
   crs:SaturationAdjustmentOrange="-4"
   crs:SaturationAdjustmentYellow="-6"
   crs:SaturationAdjustmentGreen="-10"
   crs:SaturationAdjustmentAqua="-4"
   crs:SaturationAdjustmentBlue="-6"
   crs:SaturationAdjustmentPurple="0"
   crs:SaturationAdjustmentMagenta="0"
   crs:LuminanceAdjustmentRed="4"
   crs:LuminanceAdjustmentOrange="12"
   crs:LuminanceAdjustmentYellow="4"
   crs:LuminanceAdjustmentGreen="0"
   crs:LuminanceAdjustmentAqua="0"
   crs:LuminanceAdjustmentBlue="2"
   crs:LuminanceAdjustmentPurple="0"
   crs:LuminanceAdjustmentMagenta="0"
   crs:SplitToningShadowHue="10"
   crs:SplitToningShadowSaturation="6"
   crs:SplitToningHighlightHue="40"
   crs:SplitToningHighlightSaturation="6"
   crs:SplitToningBalance="6"
   crs:ColorGradeMidtoneHue="20"
   crs:ColorGradeMidtoneSat="4"
   crs:ColorGradeShadowLum="0"
   crs:ColorGradeMidtoneLum="0"
   crs:ColorGradeHighlightLum="0"
   crs:ColorGradeBlending="50"
   crs:ColorGradeGlobalHue="15"
   crs:ColorGradeGlobalSat="4"
   crs:ColorGradeGlobalLum="0"
   crs:ShadowTint="3"
   crs:RedHue="2"
   crs:RedSaturation="-4"
   crs:GreenHue="-10"
   crs:GreenSaturation="-8"
   crs:BlueHue="2"
   crs:BlueSaturation="-6"
   crs:GrainAmount="0"
   crs:GrainSize="25"
   crs:GrainFrequency="50"
   crs:PostCropVignetteAmount="0"
   crs:PostCropVignetteMidpoint="50"
   crs:PostCropVignetteFeather="50"
   crs:PostCropVignetteRoundness="0"
   crs:PostCropVignetteStyle="1"
   crs:HDREditMode="0"
   crs:CurveRefineSaturation="100"
   crs:ConvertToGrayscale="False"
   crs:ToneCurveName2012="Custom"
   crs:HasSettings="True">
   <crs:ToneCurvePV2012>
    <rdf:Seq>
     <rdf:li>0, 16</rdf:li>
     <rdf:li>40, 44</rdf:li>
     <rdf:li>128, 130</rdf:li>
     <rdf:li>200, 206</rdf:li>
     <rdf:li>255, 248</rdf:li>
    </rdf:Seq>
   </crs:ToneCurvePV2012>
   <crs:Name>
    <rdf:Alt>
     <rdf:li xml:lang="x-default">Leica-style - Contemporary (Hernan)</rdf:li>
    </rdf:Alt>
   </crs:Name>
   <crs:ShortName>
    <rdf:Alt>
     <rdf:li xml:lang="x-default">Leica Contemporary</rdf:li>
    </rdf:Alt>
   </crs:ShortName>
   <crs:Group>
    <rdf:Alt>
     <rdf:li xml:lang="x-default">Leica - Hernan</rdf:li>
    </rdf:Alt>
   </crs:Group>
   <crs:Look>
    <rdf:Description
     crs:Name="Adobe Color"
     crs:Amount="1"
     crs:UUID="B952C231111CD8E0ECCF14B86BAA7077"
     crs:SupportsAmount="false"
     crs:SupportsMonochrome="false"
     crs:SupportsOutputReferred="false"
     crs:Copyright="© 2018 Adobe Systems, Inc."
     crs:Stubbed="true">
    <crs:Group>
     <rdf:Alt>
      <rdf:li xml:lang="x-default">Profiles</rdf:li>
     </rdf:Alt>
    </crs:Group>
    </rdf:Description>
   </crs:Look>
  </rdf:Description>
 </rdf:RDF>
</x:xmpmeta>
