presets/Leica/Color/Leica-style - Eternal.xmp
<?xml version="1.0" encoding="UTF-8"?>
<x:xmpmeta xmlns:x="adobe:ns:meta/" x:xmptk="XMP Core 6.0.0">
 <rdf:RDF xmlns:rdf="http://www.w3.org/1999/02/22-rdf-syntax-ns#">
  <rdf:Description rdf:about=""
    xmlns:crs="http://ns.adobe.com/camera-raw-settings/1.0/"
   crs:PresetType="Normal"
   crs:Cluster=""
   crs:UUID="9A2B3C4D5E6F70819203142536475869"
   crs:SupportsAmount2="True"
   crs:SupportsAmount="True"
   crs:SupportsColor="True"
   crs:SupportsMonochrome="False"
   crs:SupportsHighDynamicRange="True"
   crs:SupportsNormalDynamicRange="True"
   crs:SupportsSceneReferred="True"
   crs:SupportsOutputReferred="True"
   crs:RequiresRGBTables="False"
   crs:ShowInPresets="True"
   crs:ShowInQuickActions="False"
   crs:CameraModelRestriction=""
   crs:Copyright=""
   crs:ContactInfo=""
   crs:Version="18.5.1"
   crs:CompatibleVersion="268435456"
   crs:ProcessVersion="15.4"
   crs:AutoTone="False"
   crs:AutoWhiteVersion="134348800"
   crs:WhiteBalance="As Shot"
   crs:Contrast2012="16"
   crs:Highlights2012="-22"
   crs:Shadows2012="10"
   crs:Whites2012="6"
   crs:Blacks2012="-10"
   crs:Texture="6"
   crs:Clarity2012="6"
   crs:Dehaze="3"
   crs:Vibrance="14"
   crs:Saturation="6"
   crs:ParametricShadows="0"
   crs:ParametricDarks="0"
   crs:ParametricLights="0"
   crs:ParametricHighlights="0"
   crs:ParametricShadowSplit="25"
   crs:ParametricMidtoneSplit="50"
   crs:ParametricHighlightSplit="75"
   crs:HueAdjustmentRed="4"
   crs:HueAdjustmentOrange="0"
   crs:HueAdjustmentYellow="-4"
   crs:HueAdjustmentGreen="-6"
   crs:HueAdjustmentAqua="4"
   crs:HueAdjustmentBlue="-6"
   crs:HueAdjustmentPurple="4"
   crs:HueAdjustmentMagenta="4"
   crs:SaturationAdjustmentRed="8"
   crs:SaturationAdjustmentOrange="2"
   crs:SaturationAdjustmentYellow="2"
   crs:SaturationAdjustmentGreen="4"
   crs:SaturationAdjustmentAqua="6"
   crs:SaturationAdjustmentBlue="10"
   crs:SaturationAdjustmentPurple="6"
   crs:SaturationAdjustmentMagenta="8"
   crs:LuminanceAdjustmentRed="0"
   crs:LuminanceAdjustmentOrange="2"
   crs:LuminanceAdjustmentYellow="0"
   crs:LuminanceAdjustmentGreen="-6"
   crs:LuminanceAdjustmentAqua="0"
   crs:LuminanceAdjustmentBlue="-8"
   crs:LuminanceAdjustmentPurple="0"
   crs:LuminanceAdjustmentMagenta="0"
   crs:SplitToningShadowHue="320"
   crs:SplitToningShadowSaturation="12"
   crs:SplitToningHighlightHue="40"
   crs:SplitToningHighlightSaturation="6"
   crs:SplitToningBalance="-6"
   crs:ColorGradeMidtoneHue="330"
   crs:ColorGradeMidtoneSat="6"
   crs:ColorGradeShadowLum="0"
   crs:ColorGradeMidtoneLum="0"
   crs:ColorGradeHighlightLum="0"
   crs:ColorGradeBlending="50"
   crs:ColorGradeGlobalHue="320"
   crs:ColorGradeGlobalSat="5"
   crs:ColorGradeGlobalLum="0"
   crs:ShadowTint="8"
   crs:RedHue="4"
   crs:RedSaturation="8"
   crs:GreenHue="-8"
   crs:GreenSaturation="4"
   crs:BlueHue="-6"
   crs:BlueSaturation="8"
   crs:GrainAmount="0"
   crs:GrainSize="25"
   crs:GrainFrequency="50"
   crs:PostCropVignetteAmount="-6"
   crs:PostCropVignetteMidpoint="50"
   crs:PostCropVignetteFeather="50"
   crs:PostCropVignetteRoundness="0"
   crs:PostCropVignetteStyle="1"
   crs:HDREditMode="0"
   crs:CurveRefineSaturation="100"
   crs:ConvertToGrayscale="False"
   crs:ToneCurveName2012="Custom"
   crs:HasSettings="True">
   <crs:ToneCurvePV2012>
    <rdf:Seq>
     <rdf:li>0, 2</rdf:li>
     <rdf:li>56, 46</rdf:li>
     <rdf:li>128, 130</rdf:li>
     <rdf:li>200, 210</rdf:li>
     <rdf:li>255, 252</rdf:li>
    </rdf:Seq>
   </crs:ToneCurvePV2012>
   <crs:Name>
    <rdf:Alt>
     <rdf:li xml:lang="x-default">Leica-style - Eternal (Hernan)</rdf:li>
    </rdf:Alt>
   </crs:Name>
   <crs:ShortName>
    <rdf:Alt>
     <rdf:li xml:lang="x-default">Leica Eternal</rdf:li>
    </rdf:Alt>
   </crs:ShortName>
   <crs:Group>
    <rdf:Alt>
     <rdf:li xml:lang="x-default">Leica - Hernan</rdf:li>
    </rdf:Alt>
   </crs:Group>
   <crs:Look>
    <rdf:Description
     crs:Name="Adobe Color"
     crs:Amount="1"
     crs:UUID="B952C231111CD8E0ECCF14B86BAA7077"
     crs:SupportsAmount="false"
     crs:SupportsMonochrome="false"
     crs:SupportsOutputReferred="false"
     crs:Copyright="© 2018 Adobe Systems, Inc."
     crs:Stubbed="true">
    <crs:Group>
     <rdf:Alt>
      <rdf:li xml:lang="x-default">Profiles</rdf:li>
     </rdf:Alt>
    </crs:Group>
    </rdf:Description>
   </crs:Look>
  </rdf:Description>
 </rdf:RDF>
</x:xmpmeta>
