presets/Leica/Color/Leica-style - Classic.xmp
<?xml version="1.0" encoding="UTF-8"?>
<x:xmpmeta xmlns:x="adobe:ns:meta/" x:xmptk="XMP Core 6.0.0">
 <rdf:RDF xmlns:rdf="http://www.w3.org/1999/02/22-rdf-syntax-ns#">
  <rdf:Description rdf:about=""
    xmlns:crs="http://ns.adobe.com/camera-raw-settings/1.0/"
   crs:PresetType="Normal"
   crs:Cluster=""
   crs:UUID="5E6F70819A2B3C4D5E6F708192031425"
   crs:SupportsAmount2="True"
   crs:SupportsAmount="True"
   crs:SupportsColor="True"
   crs:SupportsMonochrome="False"
   crs:SupportsHighDynamicRange="True"
   crs:SupportsNormalDynamicRange="True"
   crs:SupportsSceneReferred="True"
   crs:SupportsOutputReferred="True"
   crs:RequiresRGBTables="False"
   crs:ShowInPresets="True"
   crs:ShowInQuickActions="False"
   crs:CameraModelRestriction=""
   crs:Copyright=""
   crs:ContactInfo=""
   crs:Version="18.5.1"
   crs:CompatibleVersion="268435456"
   crs:ProcessVersion="15.4"
   crs:AutoTone="False"
   crs:AutoWhiteVersion="134348800"
   crs:WhiteBalance="As Shot"
   crs:Contrast2012="-4"
   crs:Highlights2012="-24"
   crs:Shadows2012="16"
   crs:Whites2012="-8"
   crs:Blacks2012="18"
   crs:Texture="0"
   crs:Clarity2012="-4"
   crs:Dehaze="-3"
   crs:Vibrance="-8"
   crs:Saturation="-10"
   crs:ParametricShadows="0"
   crs:ParametricDarks="0"
   crs:ParametricLights="0"
   crs:ParametricHighlights="0"
   crs:ParametricShadowSplit="25"
   crs:ParametricMidtoneSplit="50"
   crs:ParametricHighlightSplit="75"
   crs:HueAdjustmentRed="4"
   crs:HueAdjustmentOrange="4"
   crs:HueAdjustmentYellow="-8"
   crs:HueAdjustmentGreen="14"
   crs:HueAdjustmentAqua="-6"
   crs:HueAdjustmentBlue="-8"
   crs:HueAdjustmentPurple="0"
   crs:HueAdjustmentMagenta="0"
   crs:SaturationAdjustmentRed="-4"
   crs:SaturationAdjustmentOrange="-2"
   crs:SaturationAdjustmentYellow="-12"
   crs:SaturationAdjustmentGreen="-16"
   crs:SaturationAdjustmentAqua="-8"
   crs:SaturationAdjustmentBlue="-10"
   crs:SaturationAdjustmentPurple="-6"
   crs:SaturationAdjustmentMagenta="0"
   crs:LuminanceAdjustmentRed="-2"
   crs:LuminanceAdjustmentOrange="6"
   crs:LuminanceAdjustmentYellow="0"
   crs:LuminanceAdjustmentGreen="-6"
   crs:LuminanceAdjustmentAqua="0"
   crs:LuminanceAdjustmentBlue="-4"
   crs:LuminanceAdjustmentPurple="0"
   crs:LuminanceAdjustmentMagenta="0"
   crs:SplitToningShadowHue="34"
   crs:SplitToningShadowSaturation="12"
   crs:SplitToningHighlightHue="46"
   crs:SplitToningHighlightSaturation="10"
   crs:SplitToningBalance="-6"
   crs:ColorGradeMidtoneHue="36"
   crs:ColorGradeMidtoneSat="6"
   crs:ColorGradeShadowLum="0"
   crs:ColorGradeMidtoneLum="0"
   crs:ColorGradeHighlightLum="0"
   crs:ColorGradeBlending="50"
   crs:ColorGradeGlobalHue="38"
   crs:ColorGradeGlobalSat="5"
   crs:ColorGradeGlobalLum="0"
   crs:ShadowTint="6"
   crs:RedHue="4"
   crs:RedSaturation="-4"
   crs:GreenHue="-18"
   crs:GreenSaturation="-12"
   crs:BlueHue="-6"
   crs:BlueSaturation="-8"
   crs:GrainAmount="12"
   crs:GrainSize="24"
   crs:GrainFrequency="45"
   crs:PostCropVignetteAmount="-8"
   crs:PostCropVignetteMidpoint="50"
   crs:PostCropVignetteFeather="50"
   crs:PostCropVignetteRoundness="0"
   crs:PostCropVignetteStyle="1"
   crs:HDREditMode="0"
   crs:CurveRefineSaturation="100"
   crs:ConvertToGrayscale="False"
   crs:ToneCurveName2012="Custom"
   crs:HasSettings="True">
   <crs:ToneCurvePV2012>
    <rdf:Seq>
     <rdf:li>0, 20</rdf:li>
     <rdf:li>40, 40</rdf:li>
     <rdf:li>96, 92</rdf:li>
     <rdf:li>160, 170</rdf:li>
     <rdf:li>224, 222</rdf:li>
     <rdf:li>255, 238</rdf:li>
    </rdf:Seq>
   </crs:ToneCurvePV2012>
   <crs:Name>
    <rdf:Alt>
     <rdf:li xml:lang="x-default">Leica-style - Classic (Hernan)</rdf:li>
    </rdf:Alt>
   </crs:Name>
   <crs:ShortName>
    <rdf:Alt>
     <rdf:li xml:lang="x-default">Leica Classic</rdf:li>
    </rdf:Alt>
   </crs:ShortName>
   <crs:Group>
    <rdf:Alt>
     <rdf:li xml:lang="x-default">Leica - Hernan</rdf:li>
    </rdf:Alt>
   </crs:Group>
   <crs:Look>
    <rdf:Description
     crs:Name="Adobe Color"
     crs:Amount="1"
     crs:UUID="B952C231111CD8E0ECCF14B86BAA7077"
     crs:SupportsAmount="false"
     crs:SupportsMonochrome="false"
     crs:SupportsOutputReferred="false"
     crs:Copyright="© 2018 Adobe Systems, Inc."
     crs:Stubbed="true">
    <crs:Group>
     <rdf:Alt>
      <rdf:li xml:lang="x-default">Profiles</rdf:li>
     </rdf:Alt>
    </crs:Group>
    </rdf:Description>
   </crs:Look>
  </rdf:Description>
 </rdf:RDF>
</x:xmpmeta>
