presets/Landscape/Color/Landscape - Slot_Canyon.xmp
<?xml version="1.0" encoding="UTF-8"?>
<x:xmpmeta xmlns:x="adobe:ns:meta/" x:xmptk="XMP Core 6.0.0">
 <rdf:RDF xmlns:rdf="http://www.w3.org/1999/02/22-rdf-syntax-ns#">
  <rdf:Description rdf:about=""
    xmlns:crs="http://ns.adobe.com/camera-raw-settings/1.0/"
   crs:PresetType="Normal"
   crs:Cluster=""
   crs:UUID="5FEF189A16044AB28A0817D3C7EB4726"
   crs:SupportsAmount2="True"
   crs:SupportsAmount="True"
   crs:SupportsColor="True"
   crs:SupportsMonochrome="False"
   crs:SupportsHighDynamicRange="True"
   crs:SupportsNormalDynamicRange="True"
   crs:SupportsSceneReferred="True"
   crs:SupportsOutputReferred="True"
   crs:RequiresRGBTables="False"
   crs:ShowInPresets="True"
   crs:ShowInQuickActions="False"
   crs:CameraModelRestriction=""
   crs:Copyright=""
   crs:ContactInfo=""
   crs:Version="18.5.1"
   crs:CompatibleVersion="268435456"
   crs:ProcessVersion="15.4"
   crs:AutoTone="True"
   crs:AutoWhiteVersion="134348800"
   crs:WhiteBalance="As Shot"
   crs:Contrast2012="10"
   crs:Highlights2012="-22"
   crs:Shadows2012="12"
   crs:Whites2012="-4"
   crs:Blacks2012="-8"
   crs:Texture="16"
   crs:Clarity2012="10"
   crs:Dehaze="4"
   crs:Vibrance="14"
   crs:Saturation="0"
   crs:ParametricShadows="0"
   crs:ParametricDarks="0"
   crs:ParametricLights="0"
   crs:ParametricHighlights="0"
   crs:ParametricShadowSplit="25"
   crs:ParametricMidtoneSplit="50"
   crs:ParametricHighlightSplit="75"
   crs:HueAdjustmentRed="-4"
   crs:HueAdjustmentOrange="-8"
   crs:HueAdjustmentYellow="-10"
   crs:HueAdjustmentGreen="0"
   crs:HueAdjustmentAqua="0"
   crs:HueAdjustmentBlue="0"
   crs:HueAdjustmentPurple="8"
   crs:HueAdjustmentMagenta="6"
   crs:SaturationAdjustmentRed="12"
   crs:SaturationAdjustmentOrange="16"
   crs:SaturationAdjustmentYellow="-4"
   crs:SaturationAdjustmentGreen="-20"
   crs:SaturationAdjustmentAqua="0"
   crs:SaturationAdjustmentBlue="6"
   crs:SaturationAdjustmentPurple="22"
   crs:SaturationAdjustmentMagenta="14"
   crs:LuminanceAdjustmentRed="-4"
   crs:LuminanceAdjustmentOrange="4"
   crs:LuminanceAdjustmentYellow="0"
   crs:LuminanceAdjustmentGreen="0"
   crs:LuminanceAdjustmentAqua="0"
   crs:LuminanceAdjustmentBlue="0"
   crs:LuminanceAdjustmentPurple="-6"
   crs:LuminanceAdjustmentMagenta="-4"
   crs:SplitToningShadowHue="285"
   crs:SplitToningShadowSaturation="14"
   crs:SplitToningHighlightHue="30"
   crs:SplitToningHighlightSaturation="12"
   crs:SplitToningBalance="6"
   crs:ColorGradeMidtoneHue="300"
   crs:ColorGradeMidtoneSat="8"
   crs:ColorGradeShadowLum="-2"
   crs:ColorGradeMidtoneLum="0"
   crs:ColorGradeHighlightLum="0"
   crs:ColorGradeBlending="50"
   crs:ColorGradeGlobalHue="320"
   crs:ColorGradeGlobalSat="4"
   crs:ColorGradeGlobalLum="0"
   crs:ShadowTint="6"
   crs:RedHue="4"
   crs:RedSaturation="12"
   crs:GreenHue="0"
   crs:GreenSaturation="0"
   crs:BlueHue="6"
   crs:BlueSaturation="10"
   crs:GrainAmount="6"
   crs:GrainSize="24"
   crs:GrainFrequency="50"
   crs:PostCropVignetteAmount="-12"
   crs:PostCropVignetteMidpoint="50"
   crs:PostCropVignetteFeather="50"
   crs:PostCropVignetteRoundness="0"
   crs:PostCropVignetteStyle="1"
   crs:HDREditMode="0"
   crs:CurveRefineSaturation="100"
   crs:ConvertToGrayscale="False"
   crs:ToneCurveName2012="Custom"
   crs:HasSettings="True">
   <crs:ToneCurvePV2012>
    <rdf:Seq>
     <rdf:li>0, 2</rdf:li>
     <rdf:li>56, 46</rdf:li>
     <rdf:li>128, 128</rdf:li>
     <rdf:li>196, 202</rdf:li>
     <rdf:li>255, 252</rdf:li>
    </rdf:Seq>
   </crs:ToneCurvePV2012>
   <crs:Name>
    <rdf:Alt>
     <rdf:li xml:lang="x-default">Landscape - Slot Canyon (Hernan)</rdf:li>
    </rdf:Alt>
   </crs:Name>
   <crs:ShortName>
    <rdf:Alt>
     <rdf:li xml:lang="x-default">Slot Canyon</rdf:li>
    </rdf:Alt>
   </crs:ShortName>
   <crs:Group>
    <rdf:Alt>
     <rdf:li xml:lang="x-default">Landscape - Hernan</rdf:li>
    </rdf:Alt>
   </crs:Group>
   <crs:Look>
    <rdf:Description
     crs:Name="Adobe Color"
     crs:Amount="1"
     crs:UUID="B952C231111CD8E0ECCF14B86BAA7077"
     crs:SupportsAmount="false"
     crs:SupportsMonochrome="false"
     crs:SupportsOutputReferred="false"
     crs:Copyright="© 2018 Adobe Systems, Inc."
     crs:Stubbed="true">
    <crs:Group>
     <rdf:Alt>
      <rdf:li xml:lang="x-default">Profiles</rdf:li>
     </rdf:Alt>
    </crs:Group>
    </rdf:Description>
   </crs:Look>
  </rdf:Description>
 </rdf:RDF>
</x:xmpmeta>
