presets/Modern Trends/Color/Modern - Moody_Dark_Matte (no auto).xmp
<?xml version="1.0" encoding="UTF-8"?>
<x:xmpmeta xmlns:x="adobe:ns:meta/" x:xmptk="XMP Core 6.0.0">
 <rdf:RDF xmlns:rdf="http://www.w3.org/1999/02/22-rdf-syntax-ns#">
  <rdf:Description rdf:about=""
    xmlns:crs="http://ns.adobe.com/camera-raw-settings/1.0/"
   crs:PresetType="Normal"
   crs:Cluster=""
   crs:UUID="9D0027A1E3B5C7D9F1A3C5E7B9D0F2A4"
   crs:SupportsAmount2="True"
   crs:SupportsAmount="True"
   crs:SupportsColor="True"
   crs:SupportsMonochrome="False"
   crs:SupportsHighDynamicRange="True"
   crs:SupportsNormalDynamicRange="True"
   crs:SupportsSceneReferred="True"
   crs:SupportsOutputReferred="True"
   crs:RequiresRGBTables="False"
   crs:ShowInPresets="True"
   crs:ShowInQuickActions="False"
   crs:CameraModelRestriction=""
   crs:Copyright=""
   crs:ContactInfo=""
   crs:Version="18.5.1"
   crs:CompatibleVersion="268435456"
   crs:ProcessVersion="15.4"
   crs:AutoTone="False"
   crs:WhiteBalance="As Shot"
   crs:Contrast2012="-10"
   crs:Highlights2012="-15"
   crs:Shadows2012="10"
   crs:Whites2012="-12"
   crs:Blacks2012="20"
   crs:Texture="2"
   crs:Clarity2012="-2"
   crs:Dehaze="-4"
   crs:Vibrance="-6"
   crs:Saturation="-12"
   crs:ParametricShadows="0"
   crs:ParametricDarks="0"
   crs:ParametricLights="0"
   crs:ParametricHighlights="0"
   crs:ParametricShadowSplit="25"
   crs:ParametricMidtoneSplit="50"
   crs:ParametricHighlightSplit="75"
   crs:HueAdjustmentRed="4"
   crs:HueAdjustmentOrange="-4"
   crs:HueAdjustmentYellow="-14"
   crs:HueAdjustmentGreen="18"
   crs:HueAdjustmentAqua="12"
   crs:HueAdjustmentBlue="-12"
   crs:HueAdjustmentPurple="0"
   crs:HueAdjustmentMagenta="0"
   crs:SaturationAdjustmentRed="-8"
   crs:SaturationAdjustmentOrange="-6"
   crs:SaturationAdjustmentYellow="-16"
   crs:SaturationAdjustmentGreen="-24"
   crs:SaturationAdjustmentAqua="-6"
   crs:SaturationAdjustmentBlue="-10"
   crs:SaturationAdjustmentPurple="-8"
   crs:SaturationAdjustmentMagenta="-6"
   crs:LuminanceAdjustmentRed="-4"
   crs:LuminanceAdjustmentOrange="-2"
   crs:LuminanceAdjustmentYellow="-6"
   crs:LuminanceAdjustmentGreen="-12"
   crs:LuminanceAdjustmentAqua="-4"
   crs:LuminanceAdjustmentBlue="-8"
   crs:LuminanceAdjustmentPurple="0"
   crs:LuminanceAdjustmentMagenta="0"
   crs:SplitToningShadowHue="200"
   crs:SplitToningShadowSaturation="20"
   crs:SplitToningHighlightHue="40"
   crs:SplitToningHighlightSaturation="8"
   crs:SplitToningBalance="-15"
   crs:ColorGradeMidtoneHue="195"
   crs:ColorGradeMidtoneSat="8"
   crs:ColorGradeShadowLum="-2"
   crs:ColorGradeMidtoneLum="0"
   crs:ColorGradeHighlightLum="0"
   crs:ColorGradeBlending="50"
   crs:ColorGradeGlobalHue="200"
   crs:ColorGradeGlobalSat="4"
   crs:ColorGradeGlobalLum="0"
   crs:ShadowTint="-6"
   crs:RedHue="4"
   crs:RedSaturation="-8"
   crs:GreenHue="-14"
   crs:GreenSaturation="-14"
   crs:BlueHue="-8"
   crs:BlueSaturation="-8"
   crs:GrainAmount="10"
   crs:GrainSize="22"
   crs:GrainFrequency="40"
   crs:PostCropVignetteAmount="-10"
   crs:PostCropVignetteMidpoint="50"
   crs:PostCropVignetteFeather="50"
   crs:PostCropVignetteRoundness="0"
   crs:PostCropVignetteStyle="1"
   crs:HDREditMode="0"
   crs:CurveRefineSaturation="100"
   crs:ConvertToGrayscale="False"
   crs:ToneCurveName2012="Custom"
   crs:HasSettings="True">
   <crs:ToneCurvePV2012>
    <rdf:Seq>
     <rdf:li>0, 24</rdf:li>
     <rdf:li>40, 44</rdf:li>
     <rdf:li>128, 120</rdf:li>
     <rdf:li>200, 192</rdf:li>
     <rdf:li>255, 236</rdf:li>
    </rdf:Seq>
   </crs:ToneCurvePV2012>
   <crs:Name>
    <rdf:Alt>
     <rdf:li xml:lang="x-default">Modern - Moody Dark &amp; Matte (Hernan)</rdf:li>
    </rdf:Alt>
   </crs:Name>
   <crs:ShortName>
    <rdf:Alt>
     <rdf:li xml:lang="x-default">Moody Dark &amp; Matte (no auto)</rdf:li>
    </rdf:Alt>
   </crs:ShortName>
   <crs:Group>
    <rdf:Alt>
     <rdf:li xml:lang="x-default">Modern Trends - Hernan</rdf:li>
    </rdf:Alt>
   </crs:Group>
   <crs:Look>
    <rdf:Description
     crs:Name="Adobe Color"
     crs:Amount="1"
     crs:UUID="B952C231111CD8E0ECCF14B86BAA7077"
     crs:SupportsAmount="false"
     crs:SupportsMonochrome="false"
     crs:SupportsOutputReferred="false"
     crs:Copyright="© 2018 Adobe Systems, Inc."
     crs:Stubbed="true">
    <crs:Group>
     <rdf:Alt>
      <rdf:li xml:lang="x-default">Profiles</rdf:li>
     </rdf:Alt>
    </crs:Group>
    </rdf:Description>
   </crs:Look>
  </rdf:Description>
 </rdf:RDF>
</x:xmpmeta>
