presets/Modern Trends/Color/Modern - Warm_Earthy_Boho (no auto).xmp
<?xml version="1.0" encoding="UTF-8"?>
<x:xmpmeta xmlns:x="adobe:ns:meta/" x:xmptk="XMP Core 6.0.0">
 <rdf:RDF xmlns:rdf="http://www.w3.org/1999/02/22-rdf-syntax-ns#">
  <rdf:Description rdf:about=""
    xmlns:crs="http://ns.adobe.com/camera-raw-settings/1.0/"
   crs:PresetType="Normal"
   crs:Cluster=""
   crs:UUID="2E8B6D0F1A3C4759BD82E4F60C1D5A9B"
   crs:SupportsAmount2="True"
   crs:SupportsAmount="True"
   crs:SupportsColor="True"
   crs:SupportsMonochrome="False"
   crs:SupportsHighDynamicRange="True"
   crs:SupportsNormalDynamicRange="True"
   crs:SupportsSceneReferred="True"
   crs:SupportsOutputReferred="True"
   crs:RequiresRGBTables="False"
   crs:ShowInPresets="True"
   crs:ShowInQuickActions="False"
   crs:CameraModelRestriction=""
   crs:Copyright=""
   crs:ContactInfo=""
   crs:Version="18.5.1"
   crs:CompatibleVersion="268435456"
   crs:ProcessVersion="15.4"
   crs:AutoTone="False"
   crs:WhiteBalance="As Shot"
   crs:Contrast2012="-6"
   crs:Highlights2012="-30"
   crs:Shadows2012="18"
   crs:Whites2012="-14"
   crs:Blacks2012="22"
   crs:Texture="6"
   crs:Clarity2012="-3"
   crs:Dehaze="-3"
   crs:Vibrance="-8"
   crs:Saturation="-6"
   crs:ParametricShadows="0"
   crs:ParametricDarks="0"
   crs:ParametricLights="0"
   crs:ParametricHighlights="0"
   crs:ParametricShadowSplit="25"
   crs:ParametricMidtoneSplit="50"
   crs:ParametricHighlightSplit="75"
   crs:HueAdjustmentRed="6"
   crs:HueAdjustmentOrange="4"
   crs:HueAdjustmentYellow="-12"
   crs:HueAdjustmentGreen="22"
   crs:HueAdjustmentAqua="-8"
   crs:HueAdjustmentBlue="-10"
   crs:HueAdjustmentPurple="0"
   crs:HueAdjustmentMagenta="4"
   crs:SaturationAdjustmentRed="-4"
   crs:SaturationAdjustmentOrange="4"
   crs:SaturationAdjustmentYellow="-14"
   crs:SaturationAdjustmentGreen="-30"
   crs:SaturationAdjustmentAqua="-10"
   crs:SaturationAdjustmentBlue="-12"
   crs:SaturationAdjustmentPurple="-8"
   crs:SaturationAdjustmentMagenta="-4"
   crs:LuminanceAdjustmentRed="-2"
   crs:LuminanceAdjustmentOrange="8"
   crs:LuminanceAdjustmentYellow="4"
   crs:LuminanceAdjustmentGreen="-8"
   crs:LuminanceAdjustmentAqua="0"
   crs:LuminanceAdjustmentBlue="-6"
   crs:LuminanceAdjustmentPurple="0"
   crs:LuminanceAdjustmentMagenta="0"
   crs:SplitToningShadowHue="32"
   crs:SplitToningShadowSaturation="14"
   crs:SplitToningHighlightHue="48"
   crs:SplitToningHighlightSaturation="10"
   crs:SplitToningBalance="-10"
   crs:ColorGradeMidtoneHue="35"
   crs:ColorGradeMidtoneSat="8"
   crs:ColorGradeShadowLum="-2"
   crs:ColorGradeMidtoneLum="0"
   crs:ColorGradeHighlightLum="0"
   crs:ColorGradeBlending="50"
   crs:ColorGradeGlobalHue="35"
   crs:ColorGradeGlobalSat="5"
   crs:ColorGradeGlobalLum="0"
   crs:ShadowTint="6"
   crs:RedHue="6"
   crs:RedSaturation="-4"
   crs:GreenHue="-18"
   crs:GreenSaturation="-18"
   crs:BlueHue="-6"
   crs:BlueSaturation="-10"
   crs:GrainAmount="12"
   crs:GrainSize="25"
   crs:GrainFrequency="40"
   crs:PostCropVignetteAmount="-6"
   crs:PostCropVignetteMidpoint="50"
   crs:PostCropVignetteFeather="50"
   crs:PostCropVignetteRoundness="0"
   crs:PostCropVignetteStyle="1"
   crs:HDREditMode="0"
   crs:CurveRefineSaturation="100"
   crs:ConvertToGrayscale="False"
   crs:ToneCurveName2012="Custom"
   crs:HasSettings="True">
   <crs:ToneCurvePV2012>
    <rdf:Seq>
     <rdf:li>0, 20</rdf:li>
     <rdf:li>32, 42</rdf:li>
     <rdf:li>96, 94</rdf:li>
     <rdf:li>160, 166</rdf:li>
     <rdf:li>224, 222</rdf:li>
     <rdf:li>255, 236</rdf:li>
    </rdf:Seq>
   </crs:ToneCurvePV2012>
   <crs:Name>
    <rdf:Alt>
     <rdf:li xml:lang="x-default">Modern - Warm &amp; Earthy Boho (Hernan)</rdf:li>
    </rdf:Alt>
   </crs:Name>
   <crs:ShortName>
    <rdf:Alt>
     <rdf:li xml:lang="x-default">Warm &amp; Earthy Boho (no auto)</rdf:li>
    </rdf:Alt>
   </crs:ShortName>
   <crs:Group>
    <rdf:Alt>
     <rdf:li xml:lang="x-default">Modern Trends - Hernan</rdf:li>
    </rdf:Alt>
   </crs:Group>
   <crs:Look>
    <rdf:Description
     crs:Name="Adobe Color"
     crs:Amount="1"
     crs:UUID="B952C231111CD8E0ECCF14B86BAA7077"
     crs:SupportsAmount="false"
     crs:SupportsMonochrome="false"
     crs:SupportsOutputReferred="false"
     crs:Copyright="© 2018 Adobe Systems, Inc."
     crs:Stubbed="true">
    <crs:Group>
     <rdf:Alt>
      <rdf:li xml:lang="x-default">Profiles</rdf:li>
     </rdf:Alt>
    </crs:Group>
    </rdf:Description>
   </crs:Look>
  </rdf:Description>
 </rdf:RDF>
</x:xmpmeta>
