presets/Modern Trends/Color/Modern - Snow_Winter_Moody.xmp
<?xml version="1.0" encoding="UTF-8"?>
<x:xmpmeta xmlns:x="adobe:ns:meta/" x:xmptk="XMP Core 6.0.0">
 <rdf:RDF xmlns:rdf="http://www.w3.org/1999/02/22-rdf-syntax-ns#">
  <rdf:Description rdf:about=""
    xmlns:crs="http://ns.adobe.com/camera-raw-settings/1.0/"
   crs:PresetType="Normal"
   crs:Cluster=""
   crs:UUID="7C4A9E12B6D30F58A1C7E9B4D2F60A83"
   crs:SupportsAmount2="True"
   crs:SupportsAmount="True"
   crs:SupportsColor="True"
   crs:SupportsMonochrome="False"
   crs:SupportsHighDynamicRange="True"
   crs:SupportsNormalDynamicRange="True"
   crs:SupportsSceneReferred="True"
   crs:SupportsOutputReferred="True"
   crs:RequiresRGBTables="False"
   crs:ShowInPresets="True"
   crs:ShowInQuickActions="False"
   crs:CameraModelRestriction=""
   crs:Copyright=""
   crs:ContactInfo=""
   crs:Version="18.5.1"
   crs:CompatibleVersion="268435456"
   crs:ProcessVersion="15.4"
   crs:AutoTone="False"
   crs:WhiteBalance="As Shot"
   crs:Exposure2012="0.00"
   crs:Contrast2012="10"
   crs:Highlights2012="-30"
   crs:Shadows2012="-8"
   crs:Whites2012="-6"
   crs:Blacks2012="-8"
   crs:Texture="14"
   crs:Clarity2012="12"
   crs:Dehaze="10"
   crs:Vibrance="-8"
   crs:Saturation="-10"
   crs:ParametricShadows="0"
   crs:ParametricDarks="0"
   crs:ParametricLights="0"
   crs:ParametricHighlights="0"
   crs:ParametricShadowSplit="25"
   crs:ParametricMidtoneSplit="50"
   crs:ParametricHighlightSplit="75"
   crs:HueAdjustmentRed="2"
   crs:HueAdjustmentOrange="6"
   crs:HueAdjustmentYellow="-6"
   crs:HueAdjustmentGreen="-10"
   crs:HueAdjustmentAqua="-12"
   crs:HueAdjustmentBlue="-6"
   crs:HueAdjustmentPurple="0"
   crs:HueAdjustmentMagenta="0"
   crs:SaturationAdjustmentRed="-6"
   crs:SaturationAdjustmentOrange="-14"
   crs:SaturationAdjustmentYellow="-18"
   crs:SaturationAdjustmentGreen="-16"
   crs:SaturationAdjustmentAqua="0"
   crs:SaturationAdjustmentBlue="4"
   crs:SaturationAdjustmentPurple="-10"
   crs:SaturationAdjustmentMagenta="-6"
   crs:LuminanceAdjustmentRed="0"
   crs:LuminanceAdjustmentOrange="-10"
   crs:LuminanceAdjustmentYellow="-12"
   crs:LuminanceAdjustmentGreen="0"
   crs:LuminanceAdjustmentAqua="0"
   crs:LuminanceAdjustmentBlue="-8"
   crs:LuminanceAdjustmentPurple="0"
   crs:LuminanceAdjustmentMagenta="0"
   crs:SplitToningShadowHue="210"
   crs:SplitToningShadowSaturation="14"
   crs:SplitToningHighlightHue="200"
   crs:SplitToningHighlightSaturation="6"
   crs:SplitToningBalance="-10"
   crs:ColorGradeMidtoneHue="204"
   crs:ColorGradeMidtoneSat="10"
   crs:ColorGradeShadowLum="-4"
   crs:ColorGradeMidtoneLum="-3"
   crs:ColorGradeHighlightLum="0"
   crs:ColorGradeBlending="50"
   crs:ColorGradeGlobalHue="208"
   crs:ColorGradeGlobalSat="0"
   crs:ColorGradeGlobalLum="0"
   crs:ShadowTint="4"
   crs:RedHue="0"
   crs:RedSaturation="6"
   crs:GreenHue="-10"
   crs:GreenSaturation="-12"
   crs:BlueHue="-10"
   crs:BlueSaturation="6"
   crs:GrainAmount="10"
   crs:GrainSize="22"
   crs:GrainFrequency="40"
   crs:PostCropVignetteAmount="-10"
   crs:PostCropVignetteMidpoint="50"
   crs:PostCropVignetteFeather="65"
   crs:PostCropVignetteRoundness="0"
   crs:PostCropVignetteStyle="1"
   crs:PostCropVignetteHighlightContrast="0"
   crs:HDREditMode="0"
   crs:CurveRefineSaturation="100"
   crs:ConvertToGrayscale="False"
   crs:ToneCurveName2012="Custom"
   crs:HasSettings="True">
   <crs:ToneCurvePV2012>
    <rdf:Seq>
     <rdf:li>0, 4</rdf:li>
     <rdf:li>32, 26</rdf:li>
     <rdf:li>128, 120</rdf:li>
     <rdf:li>200, 198</rdf:li>
     <rdf:li>255, 250</rdf:li>
    </rdf:Seq>
   </crs:ToneCurvePV2012>
   <crs:Name>
    <rdf:Alt>
     <rdf:li xml:lang="x-default">Modern - Snow / Winter — Moody (Hernan)</rdf:li>
    </rdf:Alt>
   </crs:Name>
   <crs:ShortName>
    <rdf:Alt>
     <rdf:li xml:lang="x-default">Snow / Winter — Moody</rdf:li>
    </rdf:Alt>
   </crs:ShortName>
   <crs:Group>
    <rdf:Alt>
     <rdf:li xml:lang="x-default">Modern Trends - Hernan</rdf:li>
    </rdf:Alt>
   </crs:Group>
   <crs:Look>
    <rdf:Description
     crs:Name="Adobe Color"
     crs:Amount="1"
     crs:UUID="B952C231111CD8E0ECCF14B86BAA7077"
     crs:SupportsAmount="false"
     crs:SupportsMonochrome="false"
     crs:SupportsOutputReferred="false"
     crs:Copyright="© 2018 Adobe Systems, Inc."
     crs:Stubbed="true">
    <crs:Group>
     <rdf:Alt>
      <rdf:li xml:lang="x-default">Profiles</rdf:li>
     </rdf:Alt>
    </crs:Group>
    </rdf:Description>
   </crs:Look>
  </rdf:Description>
 </rdf:RDF>
</x:xmpmeta>
