presets/Kodak/Color/Kodak - UltraMax_400.xmp
<?xml version="1.0" encoding="UTF-8"?>
<x:xmpmeta xmlns:x="adobe:ns:meta/" x:xmptk="XMP Core 6.0.0">
 <rdf:RDF xmlns:rdf="http://www.w3.org/1999/02/22-rdf-syntax-ns#">
  <rdf:Description rdf:about=""
    xmlns:crs="http://ns.adobe.com/camera-raw-settings/1.0/"
   crs:PresetType="Normal"
   crs:Cluster=""
   crs:UUID="E80A1BDA9A7C46AABC42A20052993F4F"
   crs:SupportsAmount2="True"
   crs:SupportsAmount="True"
   crs:SupportsColor="True"
   crs:SupportsMonochrome="False"
   crs:SupportsHighDynamicRange="True"
   crs:SupportsNormalDynamicRange="True"
   crs:SupportsSceneReferred="True"
   crs:SupportsOutputReferred="True"
   crs:RequiresRGBTables="False"
   crs:ShowInPresets="True"
   crs:ShowInQuickActions="False"
   crs:CameraModelRestriction=""
   crs:Copyright=""
   crs:ContactInfo=""
   crs:Version="18.5.1"
   crs:CompatibleVersion="268435456"
   crs:ProcessVersion="15.4"
   crs:AutoTone="True"
   crs:AutoWhiteVersion="134348800"
   crs:WhiteBalance="As Shot"
   crs:Contrast2012="14"
   crs:Highlights2012="-18"
   crs:Shadows2012="6"
   crs:Whites2012="6"
   crs:Blacks2012="-8"
   crs:Texture="6"
   crs:Clarity2012="6"
   crs:Dehaze="3"
   crs:Vibrance="18"
   crs:Saturation="6"
   crs:ParametricShadows="0"
   crs:ParametricDarks="0"
   crs:ParametricLights="0"
   crs:ParametricHighlights="0"
   crs:ParametricShadowSplit="25"
   crs:ParametricMidtoneSplit="50"
   crs:ParametricHighlightSplit="75"
   crs:HueAdjustmentRed="2"
   crs:HueAdjustmentOrange="-2"
   crs:HueAdjustmentYellow="-6"
   crs:HueAdjustmentGreen="-8"
   crs:HueAdjustmentAqua="0"
   crs:HueAdjustmentBlue="0"
   crs:HueAdjustmentPurple="0"
   crs:HueAdjustmentMagenta="0"
   crs:SaturationAdjustmentRed="12"
   crs:SaturationAdjustmentOrange="14"
   crs:SaturationAdjustmentYellow="8"
   crs:SaturationAdjustmentGreen="-6"
   crs:SaturationAdjustmentAqua="4"
   crs:SaturationAdjustmentBlue="8"
   crs:SaturationAdjustmentPurple="0"
   crs:SaturationAdjustmentMagenta="0"
   crs:LuminanceAdjustmentRed="0"
   crs:LuminanceAdjustmentOrange="2"
   crs:LuminanceAdjustmentYellow="0"
   crs:LuminanceAdjustmentGreen="0"
   crs:LuminanceAdjustmentAqua="0"
   crs:LuminanceAdjustmentBlue="-8"
   crs:LuminanceAdjustmentPurple="0"
   crs:LuminanceAdjustmentMagenta="0"
   crs:SplitToningShadowHue="35"
   crs:SplitToningShadowSaturation="6"
   crs:SplitToningHighlightHue="44"
   crs:SplitToningHighlightSaturation="8"
   crs:SplitToningBalance="6"
   crs:ColorGradeMidtoneHue="42"
   crs:ColorGradeMidtoneSat="8"
   crs:ColorGradeShadowLum="0"
   crs:ColorGradeMidtoneLum="0"
   crs:ColorGradeHighlightLum="0"
   crs:ColorGradeBlending="50"
   crs:ColorGradeGlobalHue="42"
   crs:ColorGradeGlobalSat="4"
   crs:ColorGradeGlobalLum="0"
   crs:ShadowTint="3"
   crs:RedHue="0"
   crs:RedSaturation="8"
   crs:GreenHue="-8"
   crs:GreenSaturation="0"
   crs:BlueHue="0"
   crs:BlueSaturation="6"
   crs:GrainAmount="16"
   crs:GrainSize="26"
   crs:GrainFrequency="48"
   crs:PostCropVignetteAmount="-8"
   crs:PostCropVignetteMidpoint="50"
   crs:PostCropVignetteFeather="50"
   crs:PostCropVignetteRoundness="0"
   crs:PostCropVignetteStyle="1"
   crs:HDREditMode="0"
   crs:CurveRefineSaturation="100"
   crs:ConvertToGrayscale="False"
   crs:ToneCurveName2012="Custom"
   crs:HasSettings="True">
   <crs:ToneCurvePV2012>
    <rdf:Seq>
     <rdf:li>0, 2</rdf:li>
     <rdf:li>56, 50</rdf:li>
     <rdf:li>128, 130</rdf:li>
     <rdf:li>196, 202</rdf:li>
     <rdf:li>255, 253</rdf:li>
    </rdf:Seq>
   </crs:ToneCurvePV2012>
   <crs:Name>
    <rdf:Alt>
     <rdf:li xml:lang="x-default">Kodak - UltraMax 400 (Hernan)</rdf:li>
    </rdf:Alt>
   </crs:Name>
   <crs:ShortName>
    <rdf:Alt>
     <rdf:li xml:lang="x-default">Kodak UltraMax 400</rdf:li>
    </rdf:Alt>
   </crs:ShortName>
   <crs:Group>
    <rdf:Alt>
     <rdf:li xml:lang="x-default">Kodak - Hernan</rdf:li>
    </rdf:Alt>
   </crs:Group>
   <crs:Look>
    <rdf:Description
     crs:Name="Adobe Color"
     crs:Amount="1"
     crs:UUID="B952C231111CD8E0ECCF14B86BAA7077"
     crs:SupportsAmount="false"
     crs:SupportsMonochrome="false"
     crs:SupportsOutputReferred="false"
     crs:Copyright="© 2018 Adobe Systems, Inc."
     crs:Stubbed="true">
    <crs:Group>
     <rdf:Alt>
      <rdf:li xml:lang="x-default">Profiles</rdf:li>
     </rdf:Alt>
    </crs:Group>
    </rdf:Description>
   </crs:Look>
  </rdf:Description>
 </rdf:RDF>
</x:xmpmeta>
