presets/Kodak/Color/Kodak - Portra_400.xmp
<?xml version="1.0" encoding="UTF-8"?>
<x:xmpmeta xmlns:x="adobe:ns:meta/" x:xmptk="XMP Core 6.0.0">
 <rdf:RDF xmlns:rdf="http://www.w3.org/1999/02/22-rdf-syntax-ns#">
  <rdf:Description rdf:about=""
    xmlns:crs="http://ns.adobe.com/camera-raw-settings/1.0/"
   crs:PresetType="Normal"
   crs:Cluster=""
   crs:UUID="7F3A9C1E4B2D48A6BE05C7D9F1A2B3C4"
   crs:SupportsAmount2="True"
   crs:SupportsAmount="True"
   crs:SupportsColor="True"
   crs:SupportsMonochrome="False"
   crs:SupportsHighDynamicRange="True"
   crs:SupportsNormalDynamicRange="True"
   crs:SupportsSceneReferred="True"
   crs:SupportsOutputReferred="True"
   crs:RequiresRGBTables="False"
   crs:ShowInPresets="True"
   crs:ShowInQuickActions="False"
   crs:CameraModelRestriction=""
   crs:Copyright=""
   crs:ContactInfo=""
   crs:Version="18.5.1"
   crs:CompatibleVersion="268435456"
   crs:ProcessVersion="15.4"
   crs:AutoTone="True"
   crs:AutoWhiteVersion="134348800"
   crs:WhiteBalance="As Shot"
   crs:Contrast2012="-8"
   crs:Highlights2012="-22"
   crs:Shadows2012="30"
   crs:Whites2012="-8"
   crs:Blacks2012="14"
   crs:Texture="-4"
   crs:Clarity2012="-6"
   crs:Dehaze="0"
   crs:Vibrance="-6"
   crs:Saturation="-4"
   crs:ParametricShadows="0"
   crs:ParametricDarks="0"
   crs:ParametricLights="0"
   crs:ParametricHighlights="0"
   crs:ParametricShadowSplit="25"
   crs:ParametricMidtoneSplit="50"
   crs:ParametricHighlightSplit="75"
   crs:HueAdjustmentRed="4"
   crs:HueAdjustmentOrange="2"
   crs:HueAdjustmentYellow="-6"
   crs:HueAdjustmentGreen="18"
   crs:HueAdjustmentAqua="6"
   crs:HueAdjustmentBlue="-6"
   crs:HueAdjustmentPurple="0"
   crs:HueAdjustmentMagenta="4"
   crs:SaturationAdjustmentRed="2"
   crs:SaturationAdjustmentOrange="-2"
   crs:SaturationAdjustmentYellow="-10"
   crs:SaturationAdjustmentGreen="-20"
   crs:SaturationAdjustmentAqua="-12"
   crs:SaturationAdjustmentBlue="-8"
   crs:SaturationAdjustmentPurple="-4"
   crs:SaturationAdjustmentMagenta="0"
   crs:LuminanceAdjustmentRed="6"
   crs:LuminanceAdjustmentOrange="12"
   crs:LuminanceAdjustmentYellow="6"
   crs:LuminanceAdjustmentGreen="4"
   crs:LuminanceAdjustmentAqua="0"
   crs:LuminanceAdjustmentBlue="-6"
   crs:LuminanceAdjustmentPurple="0"
   crs:LuminanceAdjustmentMagenta="0"
   crs:SplitToningShadowHue="90"
   crs:SplitToningShadowSaturation="4"
   crs:SplitToningHighlightHue="42"
   crs:SplitToningHighlightSaturation="12"
   crs:SplitToningBalance="10"
   crs:ColorGradeMidtoneHue="40"
   crs:ColorGradeMidtoneSat="5"
   crs:ColorGradeShadowLum="0"
   crs:ColorGradeMidtoneLum="0"
   crs:ColorGradeHighlightLum="0"
   crs:ColorGradeBlending="50"
   crs:ColorGradeGlobalHue="0"
   crs:ColorGradeGlobalSat="0"
   crs:ColorGradeGlobalLum="0"
   crs:ShadowTint="4"
   crs:RedHue="4"
   crs:RedSaturation="-6"
   crs:GreenHue="-12"
   crs:GreenSaturation="-14"
   crs:BlueHue="3"
   crs:BlueSaturation="6"
   crs:GrainAmount="14"
   crs:GrainSize="22"
   crs:GrainFrequency="50"
   crs:PostCropVignetteAmount="0"
   crs:HDREditMode="0"
   crs:CurveRefineSaturation="100"
   crs:ConvertToGrayscale="False"
   crs:ToneCurveName2012="Custom"
   crs:HasSettings="True">
   <crs:ToneCurvePV2012>
    <rdf:Seq>
     <rdf:li>0, 10</rdf:li>
     <rdf:li>32, 30</rdf:li>
     <rdf:li>64, 62</rdf:li>
     <rdf:li>128, 132</rdf:li>
     <rdf:li>192, 200</rdf:li>
     <rdf:li>255, 246</rdf:li>
    </rdf:Seq>
   </crs:ToneCurvePV2012>
   <crs:Name>
    <rdf:Alt>
     <rdf:li xml:lang="x-default">Kodak - Portra 400 (Hernan)</rdf:li>
    </rdf:Alt>
   </crs:Name>
   <crs:ShortName>
    <rdf:Alt>
     <rdf:li xml:lang="x-default">Kodak Portra 400</rdf:li>
    </rdf:Alt>
   </crs:ShortName>
   <crs:Group>
    <rdf:Alt>
     <rdf:li xml:lang="x-default">Kodak - Hernan</rdf:li>
    </rdf:Alt>
   </crs:Group>
   <crs:Look>
    <rdf:Description
     crs:Name="Adobe Color"
     crs:Amount="1"
     crs:UUID="B952C231111CD8E0ECCF14B86BAA7077"
     crs:SupportsAmount="false"
     crs:SupportsMonochrome="false"
     crs:SupportsOutputReferred="false"
     crs:Copyright="© 2018 Adobe Systems, Inc."
     crs:Stubbed="true">
    <crs:Group>
     <rdf:Alt>
      <rdf:li xml:lang="x-default">Profiles</rdf:li>
     </rdf:Alt>
    </crs:Group>
    </rdf:Description>
   </crs:Look>
  </rdf:Description>
 </rdf:RDF>
</x:xmpmeta>
