presets/Kodak/Color/Kodak - Ektachrome_E100.xmp
<?xml version="1.0" encoding="UTF-8"?>
<x:xmpmeta xmlns:x="adobe:ns:meta/" x:xmptk="XMP Core 6.0.0">
 <rdf:RDF xmlns:rdf="http://www.w3.org/1999/02/22-rdf-syntax-ns#">
  <rdf:Description rdf:about=""
    xmlns:crs="http://ns.adobe.com/camera-raw-settings/1.0/"
   crs:PresetType="Normal"
   crs:Cluster=""
   crs:UUID="4EC7A100E1005D1DEF10AB2C3D4E5F60"
   crs:SupportsAmount2="True"
   crs:SupportsAmount="True"
   crs:SupportsColor="True"
   crs:SupportsMonochrome="False"
   crs:SupportsHighDynamicRange="True"
   crs:SupportsNormalDynamicRange="True"
   crs:SupportsSceneReferred="True"
   crs:SupportsOutputReferred="True"
   crs:RequiresRGBTables="False"
   crs:ShowInPresets="True"
   crs:ShowInQuickActions="False"
   crs:CameraModelRestriction=""
   crs:Copyright=""
   crs:ContactInfo=""
   crs:Version="18.5.1"
   crs:CompatibleVersion="268435456"
   crs:ProcessVersion="15.4"
   crs:AutoTone="False"
   crs:AutoWhiteVersion="134348800"
   crs:WhiteBalance="As Shot"
   crs:Contrast2012="10"
   crs:Highlights2012="-45"
   crs:Shadows2012="8"
   crs:Whites2012="-6"
   crs:Blacks2012="-8"
   crs:Texture="6"
   crs:Clarity2012="8"
   crs:Dehaze="4"
   crs:Vibrance="12"
   crs:Saturation="4"
   crs:ParametricShadows="0"
   crs:ParametricDarks="0"
   crs:ParametricLights="0"
   crs:ParametricHighlights="0"
   crs:ParametricShadowSplit="25"
   crs:ParametricMidtoneSplit="50"
   crs:ParametricHighlightSplit="75"
   crs:HueAdjustmentRed="6"
   crs:HueAdjustmentOrange="2"
   crs:HueAdjustmentYellow="-4"
   crs:HueAdjustmentGreen="-6"
   crs:HueAdjustmentAqua="-6"
   crs:HueAdjustmentBlue="-8"
   crs:HueAdjustmentPurple="0"
   crs:HueAdjustmentMagenta="0"
   crs:SaturationAdjustmentRed="4"
   crs:SaturationAdjustmentOrange="-6"
   crs:SaturationAdjustmentYellow="2"
   crs:SaturationAdjustmentGreen="8"
   crs:SaturationAdjustmentAqua="4"
   crs:SaturationAdjustmentBlue="14"
   crs:SaturationAdjustmentPurple="0"
   crs:SaturationAdjustmentMagenta="0"
   crs:LuminanceAdjustmentRed="-2"
   crs:LuminanceAdjustmentOrange="2"
   crs:LuminanceAdjustmentYellow="0"
   crs:LuminanceAdjustmentGreen="-4"
   crs:LuminanceAdjustmentAqua="-6"
   crs:LuminanceAdjustmentBlue="-16"
   crs:LuminanceAdjustmentPurple="0"
   crs:LuminanceAdjustmentMagenta="0"
   crs:SplitToningShadowHue="220"
   crs:SplitToningShadowSaturation="8"
   crs:SplitToningHighlightHue="210"
   crs:SplitToningHighlightSaturation="4"
   crs:SplitToningBalance="0"
   crs:ColorGradeMidtoneHue="210"
   crs:ColorGradeMidtoneSat="3"
   crs:ColorGradeShadowLum="0"
   crs:ColorGradeMidtoneLum="0"
   crs:ColorGradeHighlightLum="0"
   crs:ColorGradeBlending="50"
   crs:ColorGradeGlobalHue="0"
   crs:ColorGradeGlobalSat="0"
   crs:ColorGradeGlobalLum="0"
   crs:ShadowTint="-3"
   crs:RedHue="6"
   crs:RedSaturation="8"
   crs:GreenHue="-8"
   crs:GreenSaturation="6"
   crs:BlueHue="-6"
   crs:BlueSaturation="18"
   crs:GrainAmount="10"
   crs:GrainSize="18"
   crs:GrainFrequency="50"
   crs:PostCropVignetteAmount="0"
   crs:HDREditMode="0"
   crs:CurveRefineSaturation="100"
   crs:ConvertToGrayscale="False"
   crs:ToneCurveName2012="Custom"
   crs:PostCropVignetteFeather="50"
   crs:PostCropVignetteMidpoint="50"
   crs:PostCropVignetteRoundness="0"
   crs:PostCropVignetteStyle="1"
   crs:HasSettings="True">
   <crs:ToneCurvePV2012>
    <rdf:Seq>
     <rdf:li>0, 0</rdf:li>
     <rdf:li>32, 22</rdf:li>
     <rdf:li>64, 58</rdf:li>
     <rdf:li>128, 128</rdf:li>
     <rdf:li>192, 200</rdf:li>
     <rdf:li>224, 232</rdf:li>
     <rdf:li>255, 255</rdf:li>
    </rdf:Seq>
   </crs:ToneCurvePV2012>
   <crs:Name>
    <rdf:Alt>
     <rdf:li xml:lang="x-default">Kodak - Ektachrome E100 (Hernan)</rdf:li>
    </rdf:Alt>
   </crs:Name>
   <crs:ShortName>
    <rdf:Alt>
     <rdf:li xml:lang="x-default">Kodak Ektachrome E100</rdf:li>
    </rdf:Alt>
   </crs:ShortName>
   <crs:Group>
    <rdf:Alt>
     <rdf:li xml:lang="x-default">Kodak - Hernan</rdf:li>
    </rdf:Alt>
   </crs:Group>
   <crs:Look>
    <rdf:Description
     crs:Name="Adobe Color"
     crs:Amount="1"
     crs:UUID="B952C231111CD8E0ECCF14B86BAA7077"
     crs:SupportsAmount="false"
     crs:SupportsMonochrome="false"
     crs:SupportsOutputReferred="false"
     crs:Copyright="© 2018 Adobe Systems, Inc."
     crs:Stubbed="true">
    <crs:Group>
     <rdf:Alt>
      <rdf:li xml:lang="x-default">Profiles</rdf:li>
     </rdf:Alt>
    </crs:Group>
    </rdf:Description>
   </crs:Look>
  </rdf:Description>
 </rdf:RDF>
</x:xmpmeta>
